icons/svg/search.svg

<?xml version="1.0" encoding="UTF-8"?>
<svg width="20px" height="20px" viewBox="0 0 20 20" version="1.1" xmlns="http://www.w3.org/2000/svg" xmlns:xlink="http://www.w3.org/1999/xlink">
    <!-- Generator: Sketch 57.1 (83088) - https://sketch.com -->
    <title>形状</title>
    <desc>Created with Sketch.</desc>
    <g id="页面1" stroke="none" stroke-width="1" fill="none" fill-rule="evenodd">
        <g id="搜索时" transform="translate(-1375.000000, -20.000000)" fill="#B2B2B2" fill-rule="nonzero">
            <g id="sousuo" transform="translate(1375.000000, 20.000000)">
                <path d="M19.2194828,18.2884483 L15.5891379,14.6691379 C16.9794828,13.0581034 17.7408621,11.0277586 17.7408621,8.87603448 C17.7408621,6.50362069 16.8139655,4.28568966 15.1477586,2.60844828 C13.4815517,0.931206897 11.2525862,0.00431034483 8.8912069,0.00431034483 C6.5187931,0.00431034483 4.30086207,0.931206897 2.62362069,2.59741379 C0.94637931,4.27465517 0.0194827586,6.50362069 0.0194827586,8.87603448 C0.0194827586,11.2484483 0.94637931,13.4663793 2.61258621,15.1436207 C4.28982759,16.8208621 6.5187931,17.7367241 8.88017241,17.7367241 C10.8332759,17.7367241 12.6981034,17.1077586 14.2318966,15.9491379 L17.8953448,19.6125862 C18.0718966,19.7891379 18.3146552,19.8884483 18.5574138,19.8884483 C18.8001724,19.8884483 19.0318966,19.8001724 19.2194828,19.6125862 C19.5836207,19.2484483 19.5836207,18.6525862 19.2194828,18.2884483 L19.2194828,18.2884483 Z M1.88431034,8.87603448 C1.88431034,5.01396552 5.02913793,1.88017241 8.88017241,1.88017241 C12.7422414,1.88017241 15.8760345,5.025 15.8760345,8.87603448 C15.8760345,12.7381034 12.7422414,15.8718966 8.88017241,15.8718966 C5.01810345,15.8718966 1.88431034,12.727069 1.88431034,8.87603448 Z" id="形状"></path>
            </g>
        </g>
    </g>
</svg>

<svg width="20" height="20" xmlns="http://www.w3.org/2000/svg"><path d="M19.22 18.288l-3.63-3.619a8.814 8.814 0 002.15-5.793c0-2.372-.926-4.59-2.592-6.268A8.772 8.772 0 008.89.004c-2.372 0-4.59.927-6.267 2.593A8.823 8.823 0 00.019 8.876c0 2.372.927 4.59 2.594 6.268a8.806 8.806 0 006.267 2.593 8.846 8.846 0 005.352-1.788l3.663 3.664c.177.176.42.275.662.275a.94.94 0 00.662-1.6zM1.883 8.876c0-3.862 3.145-6.996 6.996-6.996 3.862 0 6.996 3.145 6.996 6.996a6.998 6.998 0 01-6.996 6.996c-3.862 0-6.996-3.145-6.996-6.996z"/></svg>
